color_correction_matrix/BOE NV156FHM-N4G (i1 Pro 2) TCL.ccss
CCSS   

DESCRIPTOR "BOE NV156FHM-N4G (i1 Pro 2) TCL"
ORIGINATOR "Argyll ccxxmake"
CREATED "Sat May 16 08:55:27 2020"
REFERENCE "X-Rite i1 Pro 2"
REFERENCE_HASH "md5:7801c08328c1b210cd4ba9ee511b009b"
FIT_METHOD "ΔE*94"
MANUFACTURER_ID "BOE"
MANUFACTURER "BOE"
DISPLAY "NV156FHM-N4G"
TECHNOLOGY "LCD"
DISPLAY_TYPE_REFRESH "YES"
SPECTRAL_BANDS "36"
SPECTRAL_START_NM "380.000000"
SPECTRAL_END_NM "730.000000"
SPECTRAL_NORM "1.000000"

NUMBER_OF_FIELDS 37
BEGIN_DATA_FORMAT
SAMPLE_ID SPEC_380 SPEC_390 SPEC_400 SPEC_410 SPEC_420 SPEC_430 SPEC_440 SPEC_450 SPEC_460 SPEC_470 SPEC_480 SPEC_490 SPEC_500 SPEC_510 SPEC_520 SPEC_530 SPEC_540 SPEC_550 SPEC_560 SPEC_570 SPEC_580 SPEC_590 SPEC_600 SPEC_610 SPEC_620 SPEC_630 SPEC_640 SPEC_650 SPEC_660 SPEC_670 SPEC_680 SPEC_690 SPEC_700 SPEC_710 SPEC_720 SPEC_730 
END_DATA_FORMAT

NUMBER_OF_SETS 4
BEGIN_DATA
1 0.0401981 0.0347119 0.0365501 0.273360 3.035018 19.66167 75.96129 100.0000 54.50600 24.63594 14.02211 11.00336 15.20047 25.08687 36.88810 46.93551 52.94892 53.80406 48.39618 38.72608 29.22590 28.92559 33.54721 32.52371 27.68539 22.50190 17.76939 13.70266 10.55016 7.992288 5.895085 4.414063 3.316757 2.465029 1.810970 1.396681 
2 0.0267585 0.0216126 0.00898997 0.0248366 0.103906 0.356177 0.789085 0.706283 0.256289 0.0826827 0.0405797 0.0293626 0.0294750 0.0394499 0.0553129 0.0682287 0.0597887 0.0576424 0.0553148 0.224573 3.431193 15.48621 28.14422 30.71371 27.01607 22.12275 17.48168 13.42174 10.21547 7.660818 5.598832 4.106405 2.997422 2.166652 1.525744 1.107671 
3 0.0280928 0.0162186 0.00769777 0.00958988 0.0454334 0.305867 2.121772 3.180726 2.006717 3.409166 5.178142 6.020602 9.988327 18.87775 31.14283 42.61942 50.03988 52.17149 47.54012 38.06014 25.49329 13.15162 5.097734 1.498627 0.409400 0.168765 0.0917830 0.0644094 0.0935082 0.0798269 0.135987 0.217883 0.219285 0.210572 0.234328 0.219097 
4 0.0270401 0.0255258 0.0246730 0.245734 2.875310 18.81970 72.29577 95.18476 51.77215 20.94982 8.689041 4.873078 5.055057 5.959952 5.387365 3.883181 2.432747 1.158319 0.424657 0.166630 0.0967210 0.0643364 0.0543612 0.0523479 0.0569843 0.0642548 0.0678979 0.111220 0.223250 0.193221 0.136819 0.115684 0.0983297 0.0739146 0.112477 0.115683 
END_DATA
