color_correction_matrix/BOE NV156FHM-N4G Lenovo Y540-15IRH brightness _-2_ (i1 Pro 2).ccss
CCSS   

DESCRIPTOR "BOE NV156FHM-N4G Lenovo Y540-15IRH brightness ""-2"" (i1 Pro 2)"
ORIGINATOR "Argyll ccxxmake"
CREATED "Mon May 03 14:55:25 2021"
REFERENCE "X-Rite i1 Pro 2"
REFERENCE_HASH "md5:0cc9664458b2348ae91c50463084ab72"
FIT_METHOD "ΔE*94"
MANUFACTURER_ID "BOE"
MANUFACTURER "BOE"
DISPLAY "NV156FHM-N4G"
TECHNOLOGY "Unknown"
DISPLAY_TYPE_REFRESH "YES"
SPECTRAL_BANDS "109"
SPECTRAL_START_NM "370.000000"
SPECTRAL_END_NM "730.000000"
SPECTRAL_NORM "1.000000"

NUMBER_OF_FIELDS 110
BEGIN_DATA_FORMAT
SAMPLE_ID SPEC_370 SPEC_373 SPEC_377 SPEC_380 SPEC_383 SPEC_387 SPEC_390 SPEC_393 SPEC_397 SPEC_400 SPEC_403 SPEC_407 SPEC_410 SPEC_413 SPEC_417 SPEC_420 SPEC_423 SPEC_427 SPEC_430 SPEC_433 SPEC_437 SPEC_440 SPEC_443 SPEC_447 SPEC_450 SPEC_453 SPEC_457 SPEC_460 SPEC_463 SPEC_467 SPEC_470 SPEC_473 SPEC_477 SPEC_480 SPEC_483 SPEC_487 SPEC_490 SPEC_493 SPEC_497 SPEC_500 SPEC_503 SPEC_507 SPEC_510 SPEC_513 SPEC_517 SPEC_520 SPEC_523 SPEC_527 SPEC_530 SPEC_533 SPEC_537 SPEC_540 SPEC_543 SPEC_547 SPEC_550 SPEC_553 SPEC_557 SPEC_560 SPEC_563 SPEC_567 SPEC_570 SPEC_573 SPEC_577 SPEC_580 SPEC_583 SPEC_587 SPEC_590 SPEC_593 SPEC_597 SPEC_600 SPEC_603 SPEC_607 SPEC_610 SPEC_613 SPEC_617 SPEC_620 SPEC_623 SPEC_627 SPEC_630 SPEC_633 SPEC_637 SPEC_640 SPEC_643 SPEC_647 SPEC_650 SPEC_653 SPEC_657 SPEC_660 SPEC_663 SPEC_667 SPEC_670 SPEC_673 SPEC_677 SPEC_680 SPEC_683 SPEC_687 SPEC_690 SPEC_693 SPEC_697 SPEC_700 SPEC_703 SPEC_707 SPEC_710 SPEC_713 SPEC_717 SPEC_720 SPEC_723 SPEC_727 SPEC_730 
END_DATA_FORMAT

NUMBER_OF_SETS 4
BEGIN_DATA
1 0.0199227 0.0460446 0.0523738 0.0464786 0.0386798 0.0165286 0.0289444 0.0287654 0.0205644 0.0162152 0.0349258 0.0902507 0.193162 0.392327 0.837964 1.769728 3.457964 6.598753 12.60357 22.88363 38.54770 60.71872 85.40300 100.0000 95.11616 78.12790 61.00863 47.89477 38.08079 30.16520 23.62706 19.08360 16.24509 13.90798 11.83531 10.44878 9.918418 10.30321 11.43678 13.19042 15.63619 18.36072 21.07036 24.00764 26.96329 29.77753 32.45304 34.75377 36.92424 38.90144 40.17922 40.99700 41.39345 41.23234 40.57308 39.14758 37.20841 34.97123 32.17871 29.25745 26.38967 23.62026 21.35876 19.98764 19.88609 20.94706 22.70449 24.58396 26.01884 26.78633 26.74543 26.03089 24.92908 23.56456 22.06011 20.49688 19.08154 17.86661 16.69495 15.50323 14.30695 13.13925 12.01200 10.95058 10.02090 9.190160 8.425405 7.716519 7.063252 6.449409 5.865899 5.291314 4.755532 4.290126 3.879764 3.508370 3.150516 2.841420 2.586997 2.330615 2.102920 1.920057 1.740749 1.561892 1.379814 1.190769 1.115037 1.135905 1.270964 
2 0.0706115 0.0479213 0.0307353 0.0217373 0.0270535 0.0389959 0.0257208 0.0186995 0.0218655 0.0170844 0.0147856 0.0244181 0.0273372 0.0276171 0.0400038 0.0668574 0.108923 0.152974 0.222822 0.322561 0.444458 0.577671 0.694663 0.709826 0.590085 0.416040 0.288929 0.192904 0.134249 0.0989462 0.0751815 0.0630559 0.0503330 0.0408244 0.0304107 0.0252033 0.0202576 0.0245136 0.0279864 0.0238162 0.0237855 0.0297908 0.0382031 0.0381240 0.0394462 0.0429903 0.0434125 0.0438428 0.0466253 0.0480872 0.0480604 0.0446630 0.0404982 0.0361609 0.0305842 0.0292890 0.0279322 0.0369182 0.0493294 0.0833634 0.227044 0.647373 1.649442 3.561023 6.544926 10.38997 14.61722 18.55316 21.64655 23.68631 24.58511 24.52364 23.85329 22.76936 21.46539 20.02766 18.65694 17.49573 16.38520 15.22115 14.03717 12.88697 11.77934 10.72381 9.773690 8.914902 8.136897 7.403384 6.729283 6.113234 5.553589 5.032974 4.510712 4.031787 3.597210 3.231051 2.925088 2.608614 2.344093 2.123260 1.899629 1.712693 1.527708 1.355952 1.179987 1.030279 0.959236 0.871723 0.700067 
3 0.0325887 0.0150824 0.0287901 0.0397367 0.0378149 0.0183922 0.0153699 0.0138845 0.0153872 0.0123780 0.00327635 0.0134701 0.0200119 0.0257000 0.0260122 0.0400184 0.0500258 0.0913421 0.205022 0.480977 1.021702 1.878545 2.804924 3.245786 2.920121 2.293377 1.951744 2.100509 2.739886 3.629297 4.524766 5.347614 5.880407 5.932071 5.689456 5.504686 5.627138 6.213759 7.264405 8.792554 10.91435 13.40173 16.05238 19.03511 22.17808 25.30051 28.32812 30.99803 33.53490 35.86630 37.52531 38.70523 39.45393 39.65288 39.28796 38.10505 36.36309 34.25045 31.56905 28.69247 25.76557 22.63218 19.41403 16.16119 13.07421 10.28713 7.791387 5.704808 4.037825 2.753755 1.831728 1.200908 0.779475 0.513261 0.341601 0.232254 0.161714 0.122839 0.116075 0.115812 0.0923612 0.0676780 0.0659762 0.0665664 0.0605421 0.0522294 0.0589615 0.0688314 0.0734309 0.0690097 0.0722537 0.0873695 0.0921777 0.104315 0.132250 0.167807 0.170507 0.153243 0.162568 0.193222 0.179753 0.176251 0.196374 0.198698 0.184138 0.184807 0.213814 0.256664 0.384106 
4 0.0528979 0.0288670 0.0104991 0.0219465 0.0420477 0.0409093 0.0297176 0.0233950 0.0231230 0.0253189 0.0362462 0.0814996 0.168684 0.350940 0.793754 1.680795 3.278594 6.281785 11.99768 21.74289 36.52876 57.37855 80.65513 94.60864 90.29197 74.38466 57.99458 44.99145 34.73411 26.06053 18.74052 13.46192 10.12856 7.774880 5.984786 4.803280 4.152549 3.944431 4.012498 4.205140 4.476503 4.689938 4.735707 4.654822 4.426694 4.055939 3.662475 3.265199 2.872991 2.508357 2.131194 1.748732 1.385935 1.050568 0.762723 0.536769 0.370299 0.265408 0.189679 0.139429 0.106538 0.0807668 0.0645341 0.0559909 0.0496305 0.0452421 0.0350112 0.0330270 0.0296055 0.0365718 0.0400238 0.0277181 0.0232631 0.0314720 0.0365481 0.0286530 0.0183174 0.0246957 0.0436821 0.0574021 0.0576531 0.0553622 0.0475199 0.0610891 0.0873941 0.118494 0.152347 0.206855 0.230020 0.213134 0.178094 0.129072 0.109140 0.102812 0.103259 0.0868430 0.0747442 0.0759370 0.0745729 0.0713239 0.0562104 0.0581310 0.0785418 0.0622684 0.0538127 0.0957909 0.0947358 0.0899241 0.245086 
END_DATA
