color_correction_matrix/BOE NV156FHM-N4G Lenovo Y540-15IRH brightness _-1_ (i1 Pro 2).ccss
CCSS   

DESCRIPTOR "BOE NV156FHM-N4G Lenovo Y540-15IRH brightness ""-1"" (i1 Pro 2)"
ORIGINATOR "Argyll ccxxmake"
CREATED "Mon May 03 14:57:31 2021"
REFERENCE "X-Rite i1 Pro 2"
REFERENCE_HASH "md5:4dee834736b7ac91e56e07513181bd65"
FIT_METHOD "ΔE*94"
MANUFACTURER_ID "BOE"
MANUFACTURER "BOE"
DISPLAY "NV156FHM-N4G"
TECHNOLOGY "Unknown"
DISPLAY_TYPE_REFRESH "YES"
SPECTRAL_BANDS "109"
SPECTRAL_START_NM "370.000000"
SPECTRAL_END_NM "730.000000"
SPECTRAL_NORM "1.000000"

NUMBER_OF_FIELDS 110
BEGIN_DATA_FORMAT
SAMPLE_ID SPEC_370 SPEC_373 SPEC_377 SPEC_380 SPEC_383 SPEC_387 SPEC_390 SPEC_393 SPEC_397 SPEC_400 SPEC_403 SPEC_407 SPEC_410 SPEC_413 SPEC_417 SPEC_420 SPEC_423 SPEC_427 SPEC_430 SPEC_433 SPEC_437 SPEC_440 SPEC_443 SPEC_447 SPEC_450 SPEC_453 SPEC_457 SPEC_460 SPEC_463 SPEC_467 SPEC_470 SPEC_473 SPEC_477 SPEC_480 SPEC_483 SPEC_487 SPEC_490 SPEC_493 SPEC_497 SPEC_500 SPEC_503 SPEC_507 SPEC_510 SPEC_513 SPEC_517 SPEC_520 SPEC_523 SPEC_527 SPEC_530 SPEC_533 SPEC_537 SPEC_540 SPEC_543 SPEC_547 SPEC_550 SPEC_553 SPEC_557 SPEC_560 SPEC_563 SPEC_567 SPEC_570 SPEC_573 SPEC_577 SPEC_580 SPEC_583 SPEC_587 SPEC_590 SPEC_593 SPEC_597 SPEC_600 SPEC_603 SPEC_607 SPEC_610 SPEC_613 SPEC_617 SPEC_620 SPEC_623 SPEC_627 SPEC_630 SPEC_633 SPEC_637 SPEC_640 SPEC_643 SPEC_647 SPEC_650 SPEC_653 SPEC_657 SPEC_660 SPEC_663 SPEC_667 SPEC_670 SPEC_673 SPEC_677 SPEC_680 SPEC_683 SPEC_687 SPEC_690 SPEC_693 SPEC_697 SPEC_700 SPEC_703 SPEC_707 SPEC_710 SPEC_713 SPEC_717 SPEC_720 SPEC_723 SPEC_727 SPEC_730 
END_DATA_FORMAT

NUMBER_OF_SETS 4
BEGIN_DATA
1 0.0887241 0.0456030 0.0525001 0.0409578 0.0285667 0.0384740 0.0419447 0.0438082 0.0484710 0.0654451 0.0780929 0.122502 0.224188 0.444749 0.998747 2.073600 3.993053 7.533834 14.20995 25.47782 42.13043 64.54501 87.93734 100.0000 93.00544 75.52897 59.08578 46.53162 36.80539 28.99996 22.80916 18.57775 15.87095 13.60386 11.62117 10.36544 10.00059 10.50403 11.71895 13.55907 16.09442 18.92469 21.70908 24.69091 27.72419 30.57220 33.25792 35.59945 37.79643 39.77508 41.02663 41.79305 42.15457 41.97287 41.29448 39.85735 37.86553 35.54921 32.69893 29.68925 26.76825 23.97356 21.71182 20.33616 20.21896 21.30529 23.08496 24.97398 26.42971 27.18837 27.14352 26.41757 25.30463 23.91867 22.39380 20.80707 19.34243 18.10407 16.94132 15.73735 14.52485 13.35049 12.21633 11.13482 10.18674 9.343658 8.563672 7.853516 7.182153 6.557762 5.965853 5.411920 4.906259 4.392252 3.975753 3.596141 3.247416 2.953317 2.678888 2.392737 2.158422 1.959851 1.776434 1.604364 1.446290 1.288901 1.173897 1.182633 1.414081 
2 0.0234491 0.00726463 -0.00358714 0.00284499 0.0229479 0.0256104 0.0128617 0.00796346 0.0109157 0.00789084 0.00530659 0.00708141 0.0148840 0.0166601 0.0357756 0.0732531 0.110189 0.163797 0.247393 0.355726 0.483861 0.615548 0.718836 0.712683 0.579065 0.402690 0.270346 0.187302 0.131279 0.0963199 0.0682215 0.0515588 0.0411552 0.0341356 0.0256173 0.0218170 0.0225486 0.0230750 0.0220101 0.0193066 0.0240509 0.0283557 0.0311472 0.0368929 0.0417278 0.0450136 0.0472955 0.0484685 0.0506655 0.0508018 0.0470508 0.0430462 0.0400566 0.0400945 0.0374452 0.0345967 0.0345795 0.0335493 0.0403369 0.0781195 0.214955 0.654499 1.686418 3.646027 6.693477 10.60202 14.87443 18.87160 22.02201 24.07424 24.97042 24.91244 24.24019 23.13585 21.79063 20.31670 18.93528 17.75775 16.62581 15.44535 14.24985 13.08864 11.97343 10.89931 9.937538 9.074597 8.263933 7.507328 6.823426 6.207255 5.642753 5.110419 4.611237 4.132627 3.719337 3.329218 2.983115 2.666663 2.391646 2.161631 1.930684 1.732368 1.545294 1.368541 1.195584 1.040625 0.898028 0.772795 0.684553 
3 0.0336558 0.0240695 0.0119198 0.0207994 0.0267897 0.0151087 0.00793463 0.00342006 0.00741351 0.00685926 0.0107346 0.0105917 0.00939069 0.0134585 0.0255695 0.0342696 0.0522305 0.102360 0.229464 0.535134 1.107277 1.988820 2.900767 3.268134 2.874304 2.234626 1.904411 2.052624 2.658191 3.524781 4.418128 5.238669 5.768277 5.813299 5.584269 5.470970 5.686726 6.342823 7.448152 9.049454 11.26837 13.84455 16.55519 19.61071 22.84209 26.01292 29.08149 31.82213 34.40091 36.75211 38.38790 39.52433 40.25598 40.41841 40.02636 38.83007 37.03438 34.85205 32.10501 29.14955 26.16554 22.99311 19.73099 16.43143 13.28986 10.45473 7.919821 5.805897 4.112936 2.805901 1.863841 1.214211 0.791139 0.523139 0.347846 0.236428 0.172297 0.129137 0.104360 0.0913581 0.0794870 0.0686945 0.0626545 0.0550385 0.0512361 0.0613241 0.0659356 0.0636482 0.0654231 0.0668536 0.0725257 0.0839401 0.103165 0.124229 0.137788 0.151259 0.177100 0.186066 0.187287 0.168776 0.158930 0.168318 0.174759 0.176488 0.168752 0.158741 0.157893 0.211357 0.429831 
4 0.0200895 0.00804130 0.0131742 0.00432066 0.0121093 0.0180643 0.0127005 0.0258987 0.0312560 0.0355894 0.0552975 0.104423 0.206346 0.431892 0.932141 1.951060 3.796736 7.168501 13.53250 24.25078 39.98048 61.07083 83.13088 94.70627 88.37701 71.97289 56.21628 43.75551 33.59966 25.06040 18.08037 13.08807 9.886624 7.597665 5.866142 4.756976 4.185428 4.023606 4.117005 4.328839 4.615620 4.843853 4.880948 4.784949 4.546294 4.173413 3.766288 3.344463 2.941050 2.561836 2.174716 1.786671 1.418093 1.068328 0.775118 0.554671 0.389622 0.271961 0.199612 0.144782 0.109294 0.0892875 0.0709729 0.0614170 0.0518232 0.0598034 0.0634184 0.0567027 0.0538944 0.0469212 0.0503807 0.0542819 0.0529518 0.0431131 0.0403413 0.0481624 0.0391878 0.0404258 0.0523240 0.0471661 0.0522449 0.0545380 0.0655086 0.0769276 0.0956812 0.130826 0.163316 0.205162 0.222091 0.215138 0.193036 0.167995 0.139592 0.114636 0.109695 0.101600 0.0897703 0.0750817 0.0739487 0.0949789 0.0933200 0.0889803 0.0823688 0.106463 0.0997765 0.103178 0.135671 0.228657 0.457425 
END_DATA
