color_correction_matrix/Eizo CS270 (i1 Pro).ccss
CCSS   

DESCRIPTOR "Eizo CS270 (i1 Pro)"
ORIGINATOR "Argyll ccxxmake"
CREATED "Fri Jul 12 23:05:05 2019"
REFERENCE "GretagMacbeth i1 Pro"
REFERENCE_HASH "md5:4693b6fa87947af6f6b63ac731ad7d78"
FIT_METHOD "ΔE*94"
MANUFACTURER_ID "ENC"
MANUFACTURER "Eizo Nanao Corporation"
DISPLAY "CS270"
TECHNOLOGY "LCD RGB LED"
DISPLAY_TYPE_REFRESH "YES"
SPECTRAL_BANDS "109"
SPECTRAL_START_NM "370.000000"
SPECTRAL_END_NM "730.000000"
SPECTRAL_NORM "1.000000"

NUMBER_OF_FIELDS 110
BEGIN_DATA_FORMAT
SAMPLE_ID SPEC_370 SPEC_373 SPEC_377 SPEC_380 SPEC_383 SPEC_387 SPEC_390 SPEC_393 SPEC_397 SPEC_400 SPEC_403 SPEC_407 SPEC_410 SPEC_413 SPEC_417 SPEC_420 SPEC_423 SPEC_427 SPEC_430 SPEC_433 SPEC_437 SPEC_440 SPEC_443 SPEC_447 SPEC_450 SPEC_453 SPEC_457 SPEC_460 SPEC_463 SPEC_467 SPEC_470 SPEC_473 SPEC_477 SPEC_480 SPEC_483 SPEC_487 SPEC_490 SPEC_493 SPEC_497 SPEC_500 SPEC_503 SPEC_507 SPEC_510 SPEC_513 SPEC_517 SPEC_520 SPEC_523 SPEC_527 SPEC_530 SPEC_533 SPEC_537 SPEC_540 SPEC_543 SPEC_547 SPEC_550 SPEC_553 SPEC_557 SPEC_560 SPEC_563 SPEC_567 SPEC_570 SPEC_573 SPEC_577 SPEC_580 SPEC_583 SPEC_587 SPEC_590 SPEC_593 SPEC_597 SPEC_600 SPEC_603 SPEC_607 SPEC_610 SPEC_613 SPEC_617 SPEC_620 SPEC_623 SPEC_627 SPEC_630 SPEC_633 SPEC_637 SPEC_640 SPEC_643 SPEC_647 SPEC_650 SPEC_653 SPEC_657 SPEC_660 SPEC_663 SPEC_667 SPEC_670 SPEC_673 SPEC_677 SPEC_680 SPEC_683 SPEC_687 SPEC_690 SPEC_693 SPEC_697 SPEC_700 SPEC_703 SPEC_707 SPEC_710 SPEC_713 SPEC_717 SPEC_720 SPEC_723 SPEC_727 SPEC_730 
END_DATA_FORMAT

NUMBER_OF_SETS 4
BEGIN_DATA
1 0.479681 0.316887 0.310119 0.281669 0.165588 0.155453 0.216705 0.242117 0.183432 0.175833 0.193542 0.187463 0.239370 0.337257 0.426918 0.729663 1.278695 2.605201 5.274318 10.25903 19.58049 29.60377 42.37379 66.49932 92.58579 100.0000 86.86241 67.61804 51.51453 39.51115 29.01988 20.19261 14.62119 11.53600 9.480701 8.828230 9.491561 10.49839 13.81884 19.56456 25.80334 36.72835 50.92621 63.76740 73.00803 79.72014 87.78789 86.55898 78.70835 69.11700 58.59249 51.17281 42.36050 31.95589 26.23184 22.40819 17.66226 13.17072 10.25088 8.578288 7.318910 6.354100 5.655711 5.316642 5.670165 6.683297 8.000567 10.10553 13.77272 17.55647 21.34585 26.60675 32.27535 38.24284 43.37267 46.90884 53.02553 61.74554 61.27786 63.85640 70.57357 76.57984 77.75822 77.07082 80.58448 86.67008 83.41368 77.05922 78.08539 83.72080 73.50496 70.34780 74.68103 68.81094 57.78452 57.33010 58.16487 55.88277 51.59703 45.04303 41.13188 39.40494 37.39738 30.90348 27.37693 28.12169 23.74525 19.50819 16.91590 
2 0.293584 0.175544 0.156969 0.145927 0.0782054 0.0648892 0.0903577 0.0954292 0.0766864 0.0843879 0.0886301 0.0731929 0.0826901 0.0769739 0.0340940 -0.0415145 -0.182816 -0.509166 -1.202778 -2.504944 -4.935654 -7.600088 -10.99164 -17.35923 -24.23349 -26.20741 -22.78399 -17.76303 -13.52999 -10.33246 -7.539185 -5.209340 -3.733433 -2.905845 -2.364666 -2.192157 -2.379861 -2.654587 -3.532497 -5.068371 -6.753238 -9.678447 -13.45061 -16.84307 -19.30110 -21.11623 -23.30691 -23.01737 -20.91768 -18.34270 -15.49743 -13.49531 -11.13385 -8.363760 -6.806496 -5.770152 -4.495864 -3.286200 -2.487571 -2.012110 -1.647824 -1.338204 -1.018038 -0.662996 -0.171896 0.826337 2.501220 4.983521 8.815928 13.16219 17.69203 23.58986 29.89730 36.35519 41.93094 45.79784 52.08107 60.86609 60.55932 63.21780 69.90176 75.83057 77.01333 76.37493 79.86794 85.89312 82.61277 76.28793 77.31673 82.91736 72.75447 69.55482 73.79811 67.97414 57.04722 56.54815 57.28623 54.91447 50.52616 43.93075 39.97580 38.13268 36.11292 29.89034 26.41014 27.03249 22.81016 18.73047 16.22250 
3 0.267932 0.152050 0.168808 0.167857 0.0973550 0.0882851 0.116435 0.113286 0.0869212 0.0942471 0.102694 0.0878388 0.0929364 0.0941066 0.0568857 -0.0102990 -0.169841 -0.514284 -1.205950 -2.505794 -4.956436 -7.643348 -11.05343 -17.45861 -24.34254 -26.29684 -22.85193 -17.79429 -13.50749 -10.16851 -7.077397 -4.310546 -2.187636 -0.441180 0.986799 2.160678 3.526624 5.078091 7.975456 12.71990 18.33369 28.08876 41.31342 54.26731 64.67946 72.87960 82.06882 82.22345 75.66336 67.01958 57.11706 50.08470 41.53716 31.39721 25.81096 22.04889 17.34994 12.90671 10.02686 8.367000 7.117088 6.105956 5.278318 4.690876 4.436555 4.200333 3.489439 2.550626 1.393014 -0.211563 -1.993244 -4.021268 -6.184907 -8.324271 -10.17102 -11.50185 -13.36148 -15.75139 -15.74479 -16.46991 -18.26701 -19.91735 -20.33472 -20.25493 -21.24009 -22.75926 -21.80232 -20.12340 -20.41962 -21.91033 -19.26815 -18.40029 -19.43420 -17.81112 -14.88872 -14.66789 -14.77831 -14.08032 -12.80996 -10.97648 -9.877484 -9.276374 -8.643495 -7.077752 -6.099703 -5.950407 -4.834882 -3.803778 -3.204414 
4 0.393832 0.256295 0.254564 0.237157 0.147140 0.138098 0.186984 0.198210 0.148736 0.144143 0.153629 0.152823 0.211581 0.288840 0.386650 0.680214 1.212445 2.530890 5.190177 10.13732 19.37935 29.33032 42.02406 65.99068 91.91841 99.34072 86.29297 67.16769 51.11451 39.01681 28.30470 19.09921 12.87372 8.874376 5.959342 4.308876 3.432738 2.620389 2.135053 1.539995 0.424911 -1.386871 -4.298472 -7.919388 -11.57832 -14.90042 -18.28577 -19.38246 -18.49868 -16.76772 -14.47415 -12.77019 -10.61964 -8.037904 -6.576223 -5.591846 -4.382056 -3.212969 -2.441770 -1.991697 -1.638422 -1.376950 -1.180680 -1.072714 -1.162634 -1.402732 -1.756526 -2.311043 -3.266785 -4.282601 -5.293455 -6.709522 -8.220462 -9.762563 -11.13102 -12.08292 -13.69964 -15.96534 -15.82938 -16.46234 -18.24069 -19.87240 -20.23245 -20.09308 -21.02311 -22.49909 -21.55053 -19.85842 -20.11472 -21.60642 -19.00195 -18.14594 -19.16740 -17.58115 -14.71019 -14.50903 -14.65908 -14.05316 -12.90714 -11.12246 -10.06910 -9.648097 -9.106801 -7.400292 -6.445759 -6.442392 -5.164434 -4.003878 -3.399806 
END_DATA
